www/assets/icons/looks.svg

<svg xmlns="http://www.w3.org/2000/svg" width="24" height="24" viewBox="0 0 24 24" fill='currentColor'><path d="M12 10.5c-3.86 0-7 3.14-7 7h2c0-2.76 2.24-5 5-5s5 2.24 5 5h2c0-3.86-3.14-7-7-7m0-4c-6.07 0-11 4.93-11 11h2c0-4.96 4.04-9 9-9s9 4.04 9 9h2c0-6.07-4.93-11-11-11"/></svg>

<svg width="24" height="24" viewBox="0 0 24 24" xmlns="http://www.w3.org/2000/svg" fill='currentColor'><path d="M12 10.5C8.14 10.5 5 13.64 5 17.5H7C7 14.74 9.24 12.5 12 12.5C14.76 12.5 17 14.74 17 17.5H19C19 13.64 15.86 10.5 12 10.5ZM12 6.5C5.93 6.5 1 11.43 1 17.5H3C3 12.54 7.04 8.5 12 8.5C16.96 8.5 21 12.54 21 17.5H23C23 11.43 18.07 6.5 12 6.5Z"/></svg>
